X: 38809
T: Sueno's Stone
R: reel
M: 4/4
K: Amajor
Bcde|:fcfg aaga|~f2c2 c2Bc|dcBA ABBA|GABc d2ce|
dcBA ABBA|BBAB BcAE|FAcd ~B2AB|BcAE FAde:|
|:dcBA B2B2-|BBAB cdcA|dFAd ecBA|ABBB BcBA|
GABc d2d2-|ddcd ecBA|1 FAcd ~B2AB|BcAE FAde:|2 defa e2dc|B4||

